assets/img/payment_methods/ic-perfect-money.svg

<?xml version="1.0" encoding="UTF-8"?>
<svg viewBox="0 0 96 96" version="1.1" xmlns="http://www.w3.org/2000/svg" xmlns:xlink="http://www.w3.org/1999/xlink">
    <!-- Generator: Sketch 46.2 (44496) - http://www.bohemiancoding.com/sketch -->
    <title>Artboard</title>
    <desc>Created with Sketch.</desc>
    <defs></defs>
    <g id="Page-1" stroke="none" stroke-width="1" fill="none" fill-rule="evenodd">
        <g id="Artboard">
            <g id="ic-perfect-money">
                <g id="96" fill="#D8D8D8" opacity="0">
                    <rect id="Rectangle-4" x="0" y="0" width="96" height="96"></rect>
                </g>
                <g id="Group-3" transform="translate(10.000000, 26.000000)">
                    <g id="Group-2">
                        <g id="Group" font-size="20" font-family="Times-Roman, Times" fill="#E5210B" font-weight="normal">
                            <text id="Perfect">
                                <tspan x="0" y="19">Perfect</tspan>
                            </text>
                            <text id="Money">
                                <tspan x="0" y="35">Money</tspan>
                            </text>
                        </g>
                        <g id="perfect_money" transform="translate(60.000000, 12.000000)" fill-rule="nonzero">
                            <circle id="Oval-1" fill="#E33E23" cx="8" cy="8" r="8"></circle>
                            <path d="M2,8.10787927 C2,8.10787927 5.55464521,8.88110112 6.05414608,7.21674466 C6.54389863,5.58487001 4.91974446,5.24737151 4.91974446,5.24737151 L4.2062513,5.24737151 L4.2062513,7.98372411 L3.44172447,7.98372411 L3.44172447,5.33632109 L2.76475333,5.33632109 L2.76475333,5.05657047 C2.76475333,5.05657047 5.32960831,5.04628075 5.61282608,5.07963951 C7.03688015,5.24737152 7.72995185,7.81767448 5.44923059,8.3298374 C3.67529322,8.72819605 2,8.10787927 2,8.10787927 Z M3.43740111,8.69738757 L3.43740111,10.3399445 C3.43740111,10.3399445 3.43293925,10.6894641 3.11999332,10.689464 C2.80704739,10.6894639 2.73035749,10.689464 2.73035749,10.689464 L2.73035749,10.9636219 L4.93665116,10.9636219 L4.93665116,10.6619896 L4.44859662,10.6619896 C4.44859662,10.6619896 4.19685381,10.6332231 4.19685381,10.3753286 C4.19685381,10.1174341 4.19685381,8.68227031 4.19685381,8.68227031 L3.4417655,8.68227031 L3.43740111,8.69738757 Z M6.25721888,10.977221 L8.47936075,10.977221 L8.47936075,10.6339453 L7.84057753,10.6339453 C7.84057753,10.6339453 7.63306647,10.5158649 7.63306641,10.2767637 C7.63306641,10.0376626 7.63306641,6.14266139 7.63306641,6.14266139 L10.1098316,10.9720254 L12.5326839,6.23513545 L12.4794524,10.321583 C12.4794524,10.321583 12.5402219,10.6593203 12.1974228,10.65932 C11.8546237,10.6593197 11.7819193,10.6697708 11.7819193,10.6697708 L11.7777701,10.9327414 L14,10.9327414 L14,10.6201466 L13.4812735,10.6201466 C13.4812735,10.6201466 13.2650386,10.6415111 13.2650382,10.4022894 C13.2650377,10.1630676 13.2650382,5.44243633 13.2650382,5.44243633 C13.2650382,5.44243633 13.2682448,5.33408174 13.4595978,5.33408174 L13.9099374,5.33408174 L13.9099374,5 L12.5311543,5 L10.2611414,9.73979731 L8.00530109,5.03347375 L6.77154736,5.03347375 L6.77154736,5.31672678 L7.16327224,5.31672678 C7.16327224,5.31672678 7.2991055,5.30164897 7.29910555,5.5096321 C7.29910561,5.71761531 7.24587414,10.2987658 7.24587414,10.2987658 C7.24587414,10.2987658 7.26378172,10.6543648 6.87634357,10.6543647 C6.48890547,10.6543645 6.25803071,10.6543647 6.25803071,10.6543647 L6.25803071,11 L6.25721888,10.977221 Z" id="Combined-Shape" fill="#FFFFFF"></path>
                        </g>
                    </g>
                    <text id="Just-perfect" font-family="Copperplate" font-size="7" font-weight="normal" fill="#000000">
                        <tspan x="0" y="41">Just perfect</tspan>
                    </text>
                </g>
            </g>
        </g>
    </g>
</svg>

<svg viewBox="0 0 96 96" xmlns="http://www.w3.org/2000/svg"><title>Artboard</title><g fill="none" fill-rule="evenodd"><g font-size="20" font-family="Times-Roman, Times" fill="#E5210B"><text transform="translate(10 26)"><tspan x="0" y="19">Perfect</tspan></text><text transform="translate(10 26)"><tspan x="0" y="35">Money</tspan></text></g><g transform="translate(70 38)" fill-rule="nonzero"><circle fill="#E33E23" cx="8" cy="8" r="8"/><path d="M2 8.108s3.555.773 4.054-.891c.49-1.632-1.134-1.97-1.134-1.97h-.714v2.737h-.764V5.336h-.677v-.28s2.565-.01 2.848.024c1.424.167 2.117 2.738-.164 3.25C3.675 8.728 2 8.108 2 8.108zm1.437.59v1.642s-.004.35-.317.35h-.39v.274h2.207v-.302h-.488s-.252-.029-.252-.287V8.682h-.755l-.005.015zm2.82 2.28H8.48v-.344h-.638s-.208-.118-.208-.357V6.143l2.477 4.829 2.423-4.737-.054 4.087s.061.337-.282.337c-.342 0-.415.01-.415.01l-.004.264H14v-.313h-.519s-.216.022-.216-.218v-4.96s.003-.108.195-.108h.45V5H12.53l-2.27 4.74-2.256-4.707H6.772v.284h.391s.136-.015.136.193c0 .208-.053 4.789-.053 4.789s.018.355-.37.355h-.618V11v-.023z" fill="#FFF"/></g><text font-family="Copperplate" font-size="7" fill="#000" transform="translate(10 26)"><tspan x="0" y="41">Just perfect</tspan></text></g></svg>
